packages/swarm-icons/src/icons/line/Camera.svg

<svg xmlns="http://www.w3.org/2000/svg" width="24" height="24" viewBox="0 0 24 24">
  <path fill="#757575" d="M3,7 C2.44771525,7 2,7.44771525 2,8 L2,20 C2,20.5522847 2.44771525,21 3,21 L21,21 C21.5522847,21 22,20.5522847 22,20 L22,8 C22,7.44771525 21.5522847,7 21,7 L17.5351838,7 C16.8664774,7 16.2420147,6.66579773 15.8710832,6.10940039 L14.7616828,4.4452998 C14.576217,4.16710114 14.2639857,4 13.9296325,4 L10.0703675,4 C9.73601433,4 9.423783,4.16710114 9.23831722,4.4452998 L8.12891683,6.10940039 C7.75798527,6.66579773 7.13352262,7 6.46481624,7 L3,7 Z M3,6 L6.46481624,6 C6.79916943,6 7.11140076,5.83289886 7.29686654,5.5547002 L8.40626693,3.89059961 C8.77719849,3.33420227 9.40166114,3 10.0703675,3 L13.9296325,3 C14.5983389,3 15.2228015,3.33420227 15.5937331,3.89059961 L16.7031335,5.5547002 C16.8885992,5.83289886 17.2008306,6 17.5351838,6 L21,6 C22.1045695,6 23,6.8954305 23,8 L23,20 C23,21.1045695 22.1045695,22 21,22 L3,22 C1.8954305,22 1,21.1045695 1,20 L1,8 C1,6.8954305 1.8954305,6 3,6 Z M12,18.5 C14.4852814,18.5 16.5,16.4852814 16.5,14 C16.5,11.5147186 14.4852814,9.5 12,9.5 C9.51471863,9.5 7.5,11.5147186 7.5,14 C7.5,16.4852814 9.51471863,18.5 12,18.5 Z M12,19.5 C8.96243388,19.5 6.5,17.0375661 6.5,14 C6.5,10.9624339 8.96243388,8.5 12,8.5 C15.0375661,8.5 17.5,10.9624339 17.5,14 C17.5,17.0375661 15.0375661,19.5 12,19.5 Z M12,11 C12.2761424,11 12.5,11.2238576 12.5,11.5 C12.5,11.7761424 12.2761424,12 12,12 C10.8954305,12 10,12.8954305 10,14 C10,14.2761424 9.77614237,14.5 9.5,14.5 C9.22385763,14.5 9,14.2761424 9,14 C9,12.3431458 10.3431458,11 12,11 Z M19.5,10.5 C18.9477153,10.5 18.5,10.0522847 18.5,9.5 C18.5,8.94771525 18.9477153,8.5 19.5,8.5 C20.0522847,8.5 20.5,8.94771525 20.5,9.5 C20.5,10.0522847 20.0522847,10.5 19.5,10.5 Z"/>
</svg>

<svg xmlns="http://www.w3.org/2000/svg" width="24" height="24"><path fill="#757575" d="M3 7a1 1 0 00-1 1v12a1 1 0 001 1h18a1 1 0 001-1V8a1 1 0 00-1-1h-3.465a2 2 0 01-1.664-.89l-1.11-1.665A1 1 0 0013.93 4h-3.86a1 1 0 00-.832.445L8.128 6.11A2 2 0 016.466 7H3zm0-1h3.465a1 1 0 00.832-.445l1.11-1.664A2 2 0 0110.07 3h3.86a2 2 0 011.664.89l1.11 1.665a1 1 0 00.831.445H21a2 2 0 012 2v12a2 2 0 01-2 2H3a2 2 0 01-2-2V8a2 2 0 012-2zm9 12.5a4.5 4.5 0 100-9 4.5 4.5 0 000 9zm0 1a5.5 5.5 0 110-11 5.5 5.5 0 010 11zm0-8.5a.5.5 0 110 1 2 2 0 00-2 2 .5.5 0 11-1 0 3 3 0 013-3zm7.5-.5a1 1 0 110-2 1 1 0 010 2z"/></svg>
